img/discount/E.svg

<svg width="69" height="84" viewBox="0 0 69 84" fill="none" xmlns="http://www.w3.org/2000/svg">
<path opacity="0.2" d="M0 80.6801L10.774 78.9888V4.94855L0 3.31991V0H63.0157V20.1074H58.8814L56.877 6.51454C55.5406 6.3475 53.912 6.20134 51.9911 6.07606C50.1119 5.95078 48.1909 5.86726 46.2282 5.8255C44.2655 5.74198 42.4072 5.70022 40.6532 5.70022C38.8993 5.65846 37.5421 5.63758 36.5817 5.63758H22.8635V38.4608H45.5391L47.481 28.4385H51.4899V54.2461H47.481L45.5391 44.0984H22.8635V78.3624H39.4004C41.9896 78.3624 44.4325 78.3415 46.7293 78.2998C49.0261 78.2163 51.0932 78.1327 52.9306 78.0492C54.7681 77.9657 56.3341 77.8613 57.6286 77.736C58.965 77.6107 59.9463 77.4855 60.5727 77.3602L64.1432 61.8255H68.2774L67.0872 84H0V80.6801Z" fill="#FFD32E"/>
</svg>

<svg width="69" height="84" fill="none" xmlns="http://www.w3.org/2000/svg"><path opacity=".2" d="M0 80.68l10.774-1.691V4.949L0 3.319V0h63.016v20.107H58.88L56.877 6.515a84.83 84.83 0 00-4.886-.439c-1.88-.125-3.8-.209-5.763-.25a131.433 131.433 0 00-5.575-.126 183.054 183.054 0 00-4.071-.062H22.863V38.46H45.54l1.942-10.022h4.009v25.807H47.48l-1.942-10.148H22.863v34.264H39.4c2.59 0 5.032-.02 7.33-.062 2.296-.084 4.363-.167 6.2-.25a94.266 94.266 0 004.699-.314c1.336-.125 2.317-.25 2.944-.376l3.57-15.535h4.134L67.087 84H0v-3.32z" fill="#FFD32E"/></svg>
